!!!COM: Schiørring, Niels
!!!CDT: 1743-1798
!!!OPR@@DA: Choral-Bog
!!!ONM: 94
!!!OTL@@DA: Vi takke dig o Gud! vor Fnder
**kern	**fb	**kern	**kern	**kern	**kern	**kern	**kern	**kern
*part6	*part6	*part6	*part5	*part5	*part4	*part3	*part2	*part1
*staff8	*	*staff7	*staff6	*staff5	*staff4	*staff3	*staff2	*staff1
*clefF4	*	*clefC1	*clefF4	*clefC1	*clefF4	*clefC4	*clefC3	*clefC1
*mclefF4	*	*mclefG2	*mclefF4	*mclefG2	*mclefF4	*mclefGv2	*mclefG2	*mclefG2
*k[b-]	*	*k[b-]	*k[b-]	*k[b-]	*k[b-]	*k[b-]	*k[b-]	*k[b-]
*F:	*	*F:	*F:	*F:	*F:	*F:	*F:	*F:
*M4/4	*	*M4/4	*M4/4	*M4/4	*M4/4	*M4/4	*M4/4	*M4/4
*met(c)	*	*met(c)	*met(c)	*met(c)	*met(c)	*met(c)	*met(c)	*met(c)
*MM180	*	*MM180	*MM180	*MM180	*MM180	*MM180	*MM180	*MM180
*	*above	*	*	*	*	*	*	*
*	*slash	*	*	*	*	*	*	*
*	*	*	*^	*^	*	*	*	*
=1	=1	=1	=1	=1	=1	=1	=1	=1	=1	=1
2G	.	2g	2B-	2G	2g	2d	2G	2B-	2d	2g
=2	=2	=2	=2	=2	=2	=2	=2	=2	=2	=2
2B-	6	2g	2d	2B-	2g	2d	2B-	2B-	2d	2g
2F#X	6	2dd	2d	2F#X	2dd	2a	2F#X	2A	2d	2dd
=3	=3	=3	=3	=3	=3	=3	=3	=3	=3	=3
2G	.	2b-	2d	2G	2b-	1g	2G	2G	2d	2b-
2E	6	2cc	2c	2E	2cc	.	2E	2G	2c	2cc
=4	=4	=4	=4	=4	=4	=4	=4	=4	=4	=4
2F	.	2a	2c	2F	2a	2f	2F	2A	2c	2a
2C#X	6	2a	2A	2C#X	2a	2e	2C#X	2A	2e	2a
=5	=5	=5	=5	=5	=5	=5	=5	=5	=5	=5
4D	#_	2f#X	2A	4D	2f#X	2d	(4D	2A	2d	2f#X
4cni	.	.	.	4Cni	.	.	4Cni)	.	.	.
4B-	6_	2g	2G	4BB-	2g	2d	(4BB-	2G	2d	2g
4A	.	.	.	4AA	.	.	4AA)	.	.	.
=6	=6	=6	=6	=6	=6	=6	=6	=6	=6	=6
2G	.	1b-	1G	2GG	1b-	2d	(2GG	1G	(2d	1b-
2C#X	7 5	.	.	2C#X	.	2e	2C#X)	.	2e)	.
=7	=7	=7	=7	=7	=7	=7	=7	=7	=7	=7
2D	#	2a	2F#X	2D	2a	2d	2D	2F#X	2d	2a
2D	6	2b-	[2B-	2D	2b-	2fni	2D	[2B-	2f	2b-
=8	=8	=8	=8	=8	=8	=8	=8	=8	=8	=8
2C	7 -	2cc	4B-]	2C	2cc	2e-X	2C	(4B-]	2e-X	2cc
.	6	.	4A	.	.	.	.	4A)	.	.
2BB-	.	2dd	[2B-	2BB-	2dd	2f	2BB-	[2B-	2f	2dd
=9	=9	=9	=9	=9	=9	=9	=9	=9	=9	=9
2F	6 4	2dd	2B-]	2F	2dd	2f	2F	2B-]	2f	2dd
2F#X	-7 5	2cc	2A	2F#X	2cc	2e-X	2F#X	2A	2e-X	2cc
=10	=10	=10	=10	=10	=10	=10	=10	=10	=10	=10
2G	.	2b-	2G	2G	2b-	1d	2G	2B-	2d	2b-
2BB-	6	2g	2G	2BB-	2g	.	2BB-	2d	2d	2g
=11	=11	=11	=11	=11	=11	=11	=11	=11	=11	=11
2C	6 -	2a	2c	2C	2a	2e-X	2C	2c	2e-X	2a
2C#X	7 5	2g	2B-	2C#X	2g	2en	2C#X	2B-	2en	2g
=12	=12	=12	=12	=12	=12	=12	=12	=12	=12	=12
1D	#	1f#X	1A	1D	1f#X	1d	1D	1A	1d	1f#X
=13	=13	=13	=13	=13	=13	=13	=13	=13	=13	=13
2GG	.	2g	2B->	2GG	2g	2d	2GG	2B-	2d	2g
2G	.	2b-	2d>	2G	2b-	2g	2G	2d	2g	2b-
=14	=14	=14	=14	=14	=14	=14	=14	=14	=14	=14
2C	7	2b-	1c>	2C	2b-	2e	2C	2c	2e	2b-
2F	.	2a	.	2F	2a	2f	2F	2c	2f	2a
=15	=15	=15	=15	=15	=15	=15	=15	=15	=15	=15
2AA	-r5	2cc	2e-X>	2AA	2cc	2f	2AA	2e-X	2.f	2cc
*	*	*	*	*	*	*^	*	*	*	*
2BB-	.	2dd	2d>	2BB-	2dd	[2b-	2f/	2BB-	(4d	.	2dd
.	.	.	.	.	.	.	.	.	4f)	[4b-	.
*	*	*	*	*	*	*v	*v	*	*	*	*
=16	=16	=16	=16	=16	=16	=16	=16	=16	=16	=16
2E	-r5	2cc	2g>	2Eni	2cc	2b-]	2E	2g	4b-]	2cc
.	.	.	.	.	.	.	.	.	4g	.
2F	.	2cc	2f>	2F	2cc	2a	2F	2f	2a	2cc
=17	=17	=17	=17	=17	=17	=17	=17	=17	=17	=17
2F#X	6	2dd	2d>	2F#X	2dd	2a	2F#X	2d	2a	2dd
2D	7 #	2cc	2f#X>	2D	2cc	[2a	2D	2f#X	[2a	2cc
=18	=18	=18	=18	=18	=18	=18	=18	=18	=18	=18
2G	9	1b-	1d	1G	1b-	2a]	(2G	1d	(2a]	1b-
2GG	8	.	.	.	.	2g	2GG)	.	2g)	.
=19	=19	=19	=19	=19	=19	=19	=19	=19	=19	=19
2D	#	2a	2d	2D	2a	2f#X	2D	2d	2f#X	2a
2G	.	2b-	2d	2G	2b-	2g	2G	2d	2g	2b-
=20	=20	=20	=20	=20	=20	=20	=20	=20	=20	=20
2E-X	6	2cc	2G	2E-X	2cc	2g	2E-X	2c	2g	2cc
2D	6 4	2b-	[2G	2D	2b-	2d	2D	2d	[2g	2b-
=21	=21	=21	=21	=21	=21	=21	=21	=21	=21	=21
2C#X	6 5	1a	2G]	2C#X	1a	2eni	(2C#X	(2e	(2g]	1a
2D	#	.	4F#X	2D	.	2d	2D)	4d	2f#X)	.
.	.	.	4cni	.	.	.	.	4c)	.	.
=22	=22	=22	=22	=22	=22	=22	=22	=22	=22	=22
2GG	.	2g	2B->	2GG	2g	2d	2GG	2B-	2g	2g
*	*	*	*v	*v	*	*	*	*	*	*
*	*	*	*	*v	*v	*	*	*	*
==	==	==	==	==	==	==	==	==
*-	*-	*-	*-	*-	*-	*-	*-	*-
!!!system-decoration: {(s1,s2,s3,s4)}{(s5,s6)}{(s7,s8)}
!!!RDF**kern: i = editorial accidental, paren
!!!RDF**kern: > = above
!!!RDF**kern: < = below
!!!AGN: chorale
!!!EED: Derek Remeš
!!!EED2: Victor Phan
!!!END: 2023/11/28
!!!ENC: Wolfgang Drescher
!!!EEV: 2023/12/12
!!!title: @{ONM}. @{OTL}
!!!verovio: mnumInterval 1